X: 9318
T: Dancin' Dick
R: jig
M: 6/8
K: Ddorian
|:ede fed|a_ba gfe|fdB c2e|gfe dcB|
ede fed|a_ba gfe|dcB cBA|1 GFE D2B:|2 GFE D2A||
|:~d3 dcd|efe dcB|fgf fed|~c3 BAB|
ede fed|a_ba gfe|dcB cBA|1 GFE D2A:|2 GFE D2B||

